src/assets/yozh.svg

<?xml version="1.0" encoding="UTF-8"?>
<svg width="87px" height="33px" viewBox="0 0 87 33" version="1.1" xmlns="http://www.w3.org/2000/svg" xmlns:xlink="http://www.w3.org/1999/xlink">
    <!-- Generator: Sketch 59.1 (86144) - https://sketch.com -->
    <title>yozh</title>
    <desc>Created with Sketch.</desc>
    <defs>
        <linearGradient x1="91.9290773%" y1="45.3607041%" x2="-14.2024174%" y2="58.5263668%" id="linearGradient-1">
            <stop stop-color="#7B0000" offset="0%"></stop>
            <stop stop-color="#D20000" offset="33.7585242%"></stop>
            <stop stop-color="#FF3535" offset="99.9076225%"></stop>
        </linearGradient>
    </defs>
    <g id="final" stroke="none" stroke-width="1" fill="none" fill-rule="evenodd">
        <g id="index2" transform="translate(-1041.000000, -936.000000)" fill="url(#linearGradient-1)">
            <path d="M1128,969 C1124.66667,966.8 1121.66667,964.966667 1119,963.5 C1116.33333,962.033333 1113.66667,960.832184 1111,959.896552 C1113,959.365517 1114.66667,958.733333 1116,958 C1117.33333,957.266667 1118.66667,956.166667 1120,954.7 C1114,953.233333 1109.66667,952.133333 1107,951.4 C1104.33333,950.666667 1101.66667,949.705747 1099,948.517241 L1109,943.965517 C1104.33333,943.055172 1100,942.6 1096,942.6 C1092,942.6 1089,942.966667 1087,943.7 C1087.21362,942.372122 1087.54695,941.272122 1088,940.4 C1088.45305,939.527878 1089.45305,938.061211 1091,936 C1086.55114,937.218559 1083.2178,938.318559 1081,939.3 C1078.7822,940.281441 1076.11553,941.836614 1073,943.965517 L1072,936 C1069.33032,942.599568 1064.99699,948.832901 1059,954.7 C1052,961.548387 1044,965.841935 1042,966.870968 C1041.9825,966.879971 1041.96503,966.889182 1041.94759,966.898602 L1041.94757,966.898574 C1041.46159,967.160991 1041.28036,967.767685 1041.54278,968.253663 C1041.73239,968.604822 1042.11264,968.809623 1042.51019,968.774715 C1057.50279,967.458238 1070.99939,966.8 1083,966.8 C1095.66667,966.8 1110.66667,967.533333 1128,969 Z" id="yozh"></path>
        </g>
    </g>
</svg>

<svg width="87" height="33" xmlns="http://www.w3.org/2000/svg"><defs><linearGradient x1="91.929%" y1="45.361%" x2="-14.202%" y2="58.526%" id="a"><stop stop-color="#7B0000" offset="0%"/><stop stop-color="#D20000" offset="33.759%"/><stop stop-color="#FF3535" offset="99.908%"/></linearGradient></defs><path d="M1128 969c-3.333-2.2-6.333-4.033-9-5.5-2.667-1.467-5.333-2.668-8-3.603 2-.531 3.667-1.164 5-1.897 1.333-.733 2.667-1.833 4-3.3-6-1.467-10.333-2.567-13-3.3a56.357 56.357 0 0 1-8-2.883l10-4.551c-4.667-.91-9-1.366-13-1.366s-7 .367-9 1.1c.214-1.328.547-2.428 1-3.3.453-.872 1.453-2.339 3-4.4-4.449 1.219-7.782 2.319-10 3.3-2.218.981-4.884 2.537-8 4.666l-1-7.966c-2.67 6.6-7.003 12.833-13 18.7-7 6.848-15 11.142-17 12.171a1 1 0 0 0 .51 1.904c14.993-1.317 28.49-1.975 40.49-1.975 12.667 0 27.667.733 45 2.2z" transform="translate(-1041 -936)" fill="url(#a)" fill-rule="evenodd"/></svg>
